resources/svg/chat-o.svg

<svg xmlns="http://www.w3.org/2000/svg" viewBox="0 0 15 15" fill="none"><path d="M11.5 13.5L11.6568 13.0252L11.4388 12.9532L11.2421 13.0716L11.5 13.5ZM13.5 11.5L13.0788 11.2305L12.95 11.4319L13.0258 11.6585L13.5 11.5ZM14.5 14.4908L14.3432 14.9656C14.5229 15.025 14.7206 14.9778 14.8542 14.8437C14.9878 14.7097 15.0342 14.5118 14.9742 14.3323L14.5 14.4908ZM11.2421 13.0716C10.2859 13.6474 8.75657 13.9908 7.5 13.9908V14.9908C8.88543 14.9908 10.6061 14.6218 11.7579 13.9284L11.2421 13.0716ZM7.5 13.9908C3.90983 13.9908 1 11.0825 1 7.49548H0C0 11.6354 3.35817 14.9908 7.5 14.9908V13.9908ZM1 7.49548C1 3.90845 3.90984 1 7.5 1V0C3.35816 0 0 3.35556 0 7.49548H1ZM7.5 1C11.0902 1 14 3.90845 14 7.49548H15C15 3.35556 11.6418 0 7.5 0V1ZM14 7.49548C14 8.82628 13.7043 10.2529 13.0788 11.2305L13.9212 11.7695C14.6857 10.5745 15 8.93686 15 7.49548H14ZM11.3432 13.9748L14.3432 14.9656L14.6568 14.0161L11.6568 13.0252L11.3432 13.9748ZM14.9742 14.3323L13.9742 11.3415L13.0258 11.6585L14.0258 14.6494L14.9742 14.3323Z" fill="black"/></svg>

<svg xmlns="http://www.w3.org/2000/svg" viewBox="0 0 15 15" fill="none"><path d="M11.5 13.5l.157-.475-.218-.072-.197.119.258.428zm2-2l-.421-.27-.129.202.076.226.474-.158zm1 2.99l-.157.476a.5.5 0 00.631-.634l-.474.159zm-3.258-1.418c-.956.575-2.485.919-3.742.919v1c1.385 0 3.106-.37 4.258-1.063l-.516-.856zM7.5 13.99c-3.59 0-6.5-2.909-6.5-6.496H0a7.498 7.498 0 007.5 7.496v-1zM1 7.495A6.498 6.498 0 017.5 1V0A7.498 7.498 0 000 7.495h1zM7.5 1C11.09 1 14 3.908 14 7.495h1A7.498 7.498 0 007.5 0v1zM14 7.495c0 1.331-.296 2.758-.921 3.735l.842.54C14.686 10.575 15 8.937 15 7.495h-1zm-2.657 6.48l3 .99.314-.949-3-.99-.314.949zm3.631.357l-1-2.99-.948.316 1 2.991.948-.317z" fill="currentColor"/></svg>
